img/svg/menu-toggle-closed.svg

<svg width="16" height="16" viewBox="0 0 16 16" fill="none" xmlns="http://www.w3.org/2000/svg">
<path d="M2.66667 4H13.3333V5.33333H2.66667V4ZM5.33333 7.33333H13.3333V8.66667H5.33333V7.33333ZM8.66667 10.6667H13.3333V12H8.66667V10.6667Z" fill="white"/>
</svg>

<svg width="16" height="16" fill="none" xmlns="http://www.w3.org/2000/svg"><path d="M2.667 4h10.666v1.333H2.667V4Zm2.666 3.333h8v1.334h-8V7.333Zm3.334 3.334h4.666V12H8.667v-1.333Z" fill="#fff"/></svg>
